!!!OTL: Die Mordeltern
!!!OTL-incipit:Es hat ein Gastwirt einen Sohn,
!!!ARE: Europa, Mitteleuropa, Deutschland (), Thueringen
!!!YOR: 4, S. 312
!!    ????
!!!SCT: Q0085i
!!!TXL: @@DE
!!!YEM: Copyright 1995, estate of Helmut Schaffrath.
**kern	**text
*ICvox	*
!! Irregular meter.
*MX	*
*k[f#]	*
*G:	*
!LO:TX:a:t=317 Thüringen	!
{4d	Es
=1	=1
4g	hat
4a	ein
4.b	Gaſt-
8b	-wirt
=2	=2
4a	einen
4g	.
4a	Sohn,
4r}	.
{4d	ein
=3	=3
8a	Handwerk
8b	.
4cc	wollt
4cc	er
=4	=4
4b	ler-
4a	-nen
4b	ſchon,
2r}	.
{4g	ein
=5	=5
4b	Schloſ-
4dd	-ſer
8b	wollt
8g	er
=6	=6
2a	wer-
2g}	-den.
{4g	ein
=7	=7
4b	Schloſ-
4dd	-ſer
8b	wollt
8g	er
=8	=8
2a	wer-
2g}	-den.
==	==
!!!AGN: Ballade, Habgier, Mord, Reue, Selbstmord
!!!ONB: ESAC (Essen Associative Code) Database: BALLADE
!!!AMT: irregular
!!!AIN: vox
!!!EED: Helmut Schaffrath
!!!EEV: 1.0
!!!source: Deutsche Volkslieder mit ihren Melodien. Herausgegeben vom Deutschen Volksliedarchiv. Vierter Band. Berlin 1959.
!!!page: 312
!!!ENC: Anna Maria Matuszewska
!!!EEV: 2025/02/26
*-	*-
